src/assets/flags/hk.svg

<?xml version="1.0" encoding="UTF-8"?>
<svg xmlns="http://www.w3.org/2000/svg" xmlns:xlink="http://www.w3.org/1999/xlink" width="25px" height="px" viewBox="0 0 25 19" version="1.1">
<g id="surface1">
<rect x="0" y="0" width="25" height="19" style="fill:rgb(92.54902%,10.588235%,18.039216%);fill-opacity:1;stroke:none;"/>
<path style=" stroke:none;fill-rule:nonzero;fill:rgb(100%,100%,100%);fill-opacity:1;" d="M 13.527344 4.082031 C 10.429688 3.878906 9.007812 7.992188 11.9375 9.511719 C 10.921875 8.625 11.132812 7.324219 11.542969 6.644531 L 11.617188 6.691406 C 11.078125 7.621094 11.179688 8.777344 12.050781 9.5 C 11.554688 9.011719 11.679688 7.957031 12.523438 7.5625 C 13.367188 7.171875 13.445312 6.007812 13.164062 5.621094 C 12.78125 4.945312 12.902344 4.433594 13.527344 4.082031 M 12.027344 6.492188 L 11.84375 6.785156 L 11.773438 6.445312 L 11.4375 6.351562 L 11.742188 6.183594 L 11.71875 5.832031 L 11.972656 6.070312 L 12.296875 5.941406 L 12.152344 6.261719 L 12.371094 6.53125 Z M 12.027344 6.492188 "/>
<path style=" stroke:none;fill-rule:nonzero;fill:rgb(100%,100%,100%);fill-opacity:1;" d="M 17.832031 9.195312 C 17.0625 6.144531 12.765625 6.046875 12.242188 9.339844 C 12.761719 8.085938 14.046875 7.886719 14.808594 8.074219 L 14.792969 8.160156 C 13.753906 7.925781 12.699219 8.382812 12.289062 9.445312 C 12.59375 8.816406 13.621094 8.609375 14.25 9.300781 C 14.878906 9.996094 15.996094 9.710938 16.273438 9.320312 C 16.789062 8.742188 17.308594 8.699219 17.832031 9.195312 M 15.105469 8.492188 L 14.773438 8.40625 L 15.070312 8.234375 L 15.054688 7.882812 L 15.304688 8.121094 L 15.628906 7.992188 L 15.480469 8.3125 L 15.703125 8.582031 L 15.359375 8.542969 L 15.175781 8.835938 Z M 15.105469 8.492188 "/>
<path style=" stroke:none;fill-rule:nonzero;fill:rgb(100%,100%,100%);fill-opacity:1;" d="M 14.363281 14.921875 C 16.984375 13.238281 15.75 9.066406 12.5 9.582031 C 13.835938 9.691406 14.417969 10.871094 14.480469 11.664062 L 14.394531 11.671875 C 14.292969 10.597656 13.539062 9.726562 12.414062 9.65625 C 13.097656 9.757812 13.609375 10.683594 13.152344 11.503906 C 12.699219 12.324219 13.3125 13.3125 13.761719 13.457031 C 14.464844 13.777344 14.664062 14.265625 14.363281 14.921875 M 14.179688 12.078125 L 14.15625 11.730469 L 14.410156 11.964844 L 14.734375 11.839844 L 14.585938 12.15625 L 14.8125 12.429688 L 14.464844 12.382812 L 14.277344 12.683594 L 14.210938 12.335938 L 13.875 12.25 Z M 14.179688 12.078125 "/>
<path style=" stroke:none;fill-rule:nonzero;fill:rgb(100%,100%,100%);fill-opacity:1;" d="M 7.914062 13.347656 C 10.304688 15.355469 13.839844 12.875 12.351562 9.902344 C 12.660156 11.222656 11.734375 12.152344 11.007812 12.453125 L 10.972656 12.375 C 11.949219 11.945312 12.539062 10.949219 12.253906 9.84375 C 12.371094 10.53125 11.65625 11.3125 10.746094 11.128906 C 9.839844 10.941406 9.101562 11.835938 9.101562 12.320312 C 9.019531 13.09375 8.625 13.4375 7.914062 13.347656 M 10.527344 12.292969 L 10.84375 12.164062 L 10.703125 12.480469 L 10.925781 12.753906 L 10.578125 12.710938 L 10.394531 13.011719 L 10.328125 12.664062 L 9.988281 12.574219 L 10.292969 12.402344 L 10.273438 12.054688 Z M 10.527344 12.292969 "/>
<path style=" stroke:none;fill-rule:nonzero;fill:rgb(100%,100%,100%);fill-opacity:1;" d="M 7.398438 6.648438 C 6.253906 9.570312 9.671875 12.214844 12.003906 9.859375 C 10.859375 10.5625 9.703125 9.957031 9.191406 9.355469 L 9.257812 9.296875 C 9.964844 10.101562 11.078125 10.363281 12.027344 9.746094 C 11.417969 10.074219 10.464844 9.625 10.359375 8.691406 C 10.25 7.757812 9.183594 7.324219 8.730469 7.476562 C 7.980469 7.636719 7.535156 7.359375 7.398438 6.648438 M 9.199219 8.839844 L 9.417969 9.105469 L 9.074219 9.070312 L 8.886719 9.363281 L 8.820312 9.019531 L 8.480469 8.933594 L 8.789062 8.761719 L 8.765625 8.410156 L 9.019531 8.648438 L 9.339844 8.519531 Z M 9.199219 8.839844 "/>
</g>
</svg>

<svg xmlns="http://www.w3.org/2000/svg" width="25" height="px" viewBox="0 0 25 19"><path d="M0 0h25v19H0z" style="fill:#ec1b2e;fill-opacity:1;stroke:none"/><path d="M13.527 4.082c-3.097-.203-4.52 3.91-1.59 5.43-1.015-.887-.804-2.188-.394-2.867l.074.046c-.539.93-.437 2.086.434 2.809-.496-.488-.371-1.543.472-1.937.844-.391.922-1.555.641-1.942q-.575-1.013.363-1.539m-1.5 2.41-.183.293-.07-.34-.336-.093.304-.168-.023-.352.254.238.324-.129-.145.32.22.27Zm0 0" style="stroke:none;fill-rule:nonzero;fill:#fff;fill-opacity:1"/><path d="M17.832 9.195c-.77-3.05-5.066-3.148-5.59.145.52-1.254 1.805-1.453 2.567-1.266l-.016.086c-1.04-.234-2.094.223-2.504 1.285.305-.629 1.332-.836 1.961-.144.629.695 1.746.41 2.023.02q.774-.87 1.559-.126m-2.727-.703-.332-.086.297-.172-.015-.351.25.238.324-.129-.149.32.223.27-.344-.039-.183.293Zm0 0" style="stroke:none;fill-rule:nonzero;fill:#fff;fill-opacity:1"/><path d="M14.363 14.922c2.621-1.684 1.387-5.856-1.863-5.34 1.336.11 1.918 1.29 1.98 2.082l-.085.008c-.102-1.074-.856-1.945-1.98-2.016.683.102 1.194 1.028.737 1.848-.453.82.16 1.809.61 1.953q1.053.48.601 1.465m-.183-2.844-.024-.348.254.235.324-.125-.148.316.226.274-.347-.047-.188.3-.066-.347-.336-.086Zm0 0" style="stroke:none;fill-rule:nonzero;fill:#fff;fill-opacity:1"/><path d="M7.914 13.348c2.39 2.007 5.926-.473 4.438-3.446.308 1.32-.618 2.25-1.344 2.551l-.035-.078c.976-.43 1.566-1.426 1.28-2.531.118.687-.597 1.469-1.507 1.285-.906-.188-1.644.707-1.644 1.191q-.122 1.161-1.188 1.028m2.613-1.055.317-.129-.14.316.222.274-.348-.043-.183.3-.067-.347-.34-.09.305-.172-.02-.347Zm0 0" style="stroke:none;fill-rule:nonzero;fill:#fff;fill-opacity:1"/><path d="M7.398 6.648C6.254 9.57 9.672 12.215 12.004 9.86c-1.145.704-2.3.098-2.813-.504l.067-.058c.707.805 1.82 1.066 2.77.45-.61.327-1.563-.122-1.669-1.056-.109-.933-1.175-1.367-1.629-1.214q-1.126.239-1.332-.829M9.2 8.84l.219.265-.344-.035-.187.293-.067-.343-.34-.086.31-.172-.024-.352.254.238.32-.128Zm0 0" style="stroke:none;fill-rule:nonzero;fill:#fff;fill-opacity:1"/></svg>
